assets/Ferry/Flat/ferry_flat.svg

<svg width="32" height="32" viewBox="0 0 32 32" fill="none" xmlns="http://www.w3.org/2000/svg">
<path d="M14 7L16.8536 4.14645C16.9473 4.05268 17.0745 4 17.2071 4H19.7664C19.8663 4 19.9258 4.11127 19.8704 4.19434L18 7L17.1113 8H20V7C20 6.44772 20.4477 6 21 6H30V8L29.5 9.5L30 11V12L29.0078 12.9883L30 14V19L27.8625 21.7771L30 25V28.5H6C5 28.5 5 26.5 5 26C5 25.2821 4.5 25 4.5 25L8 19L10 17L12 15.9922V15C12.4 14.6 12.5 14.1667 12.5 14L13.1562 13.4922L12.5 13L11.1022 11.0031L11.5269 10.0046L9.70433 9.00618L9 8H14.8887L14 7Z" fill="#CDC4D6"/>
<path d="M30.01 27C28.26 27 28.25 28.12 26.5 28.12C24.75 28.12 24.75 27 22.99 27C21.24 27 21.24 28.12 19.49 28.12C17.74 28.12 17.74 27 15.99 27C14.24 27 14.24 28.12 12.49 28.12C10.74 28.12 10.74 27 8.98999 27C7.23999 27 7.24 28.12 5.5 28.12C3.75 28.12 3.75 27 2 27V30H30.01V27Z" fill="#5092FF"/>
<path d="M21.0825 8.5C21.0825 8.22386 21.3064 8 21.5825 8H30.0002V11H21.5825C21.3064 11 21.0825 10.7761 21.0825 10.5V8.5Z" fill="#00A6ED"/>
<path d="M11.9927 15L9.99269 17H12.9927C13.545 17 13.9927 16.5523 13.9927 16C13.9927 15.4477 13.545 15 12.9927 15H11.9927Z" fill="#00A6ED"/>
<path d="M16.0825 17C16.6348 17 17.0825 16.5523 17.0825 16C17.0825 15.4477 16.6348 15 16.0825 15C15.5303 15 15.0825 15.4477 15.0825 16C15.0825 16.5523 15.5303 17 16.0825 17Z" fill="#00A6ED"/>
<path d="M20.0825 16C20.0825 16.5523 19.6348 17 19.0825 17C18.5302 17 18.0825 16.5523 18.0825 16C18.0825 15.4477 18.5302 15 19.0825 15C19.6348 15 20.0825 15.4477 20.0825 16Z" fill="#00A6ED"/>
<path d="M22.0825 17C22.6348 17 23.0825 16.5523 23.0825 16C23.0825 15.4477 22.6348 15 22.0825 15C21.5302 15 21.0825 15.4477 21.0825 16C21.0825 16.5523 21.5302 17 22.0825 17Z" fill="#00A6ED"/>
<path d="M26.0825 16C26.0825 16.5523 25.6348 17 25.0825 17C24.5302 17 24.0825 16.5523 24.0825 16C24.0825 15.4477 24.5302 15 25.0825 15C25.6348 15 26.0825 15.4477 26.0825 16Z" fill="#00A6ED"/>
<path d="M28.0825 17C28.6348 17 29.0825 16.5523 29.0825 16C29.0825 15.4477 28.6348 15 28.0825 15C27.5303 15 27.0825 15.4477 27.0825 16C27.0825 16.5523 27.5303 17 28.0825 17Z" fill="#00A6ED"/>
<path d="M9.70508 9L11.1138 11H14.0122C14.5645 11 15.0122 10.5523 15.0122 10C15.0122 9.44772 14.5645 9 14.0122 9H9.70508Z" fill="#00A6ED"/>
<path d="M15.5 12C15.2239 12 15 12.2239 15 12.5V13L22.5 13.5203L30 13V12H15.5Z" fill="#433B6B"/>
<path d="M5.5 19C5.22386 19 5 19.2239 5 19.5V20L17 20.5L30 20V19H5.5Z" fill="#433B6B"/>
<path d="M8 7.5C8 7.22386 8.22386 7 8.5 7H20V8H8.5C8.22386 8 8 7.77614 8 7.5Z" fill="#0084CE"/>
<path d="M11 13.5C11 13.2239 11.2239 13 11.5 13H30V14H11.5C11.2239 14 11 13.7761 11 13.5Z" fill="#0084CE"/>
<path d="M3 20C2.44772 20 2 20.4476 2 20.9999V23C2 25 4.5 25 4.5 25H30V20H3Z" fill="#0084CE"/>
<rect x="19" y="8" width="1" height="4" fill="#B4ACBC"/>
</svg>

<svg xmlns="http://www.w3.org/2000/svg" width="32" height="32" fill="none"><path fill="#CDC4D6" d="m14 7 2.854-2.854A.5.5 0 0 1 17.207 4h2.56c.1 0 .159.111.103.194L18 7l-.889 1H20V7a1 1 0 0 1 1-1h9v2l-.5 1.5.5 1.5v1l-.992.988L30 14v5l-2.137 2.777L30 25v3.5H6c-1 0-1-2-1-2.5 0-.718-.5-1-.5-1L8 19l2-2 2-1.008V15c.4-.4.5-.833.5-1l.656-.508L12.5 13l-1.398-1.997.425-.998-1.823-.999L9 8h5.889L14 7Z"/><path fill="#5092FF" d="M30.01 27c-1.75 0-1.76 1.12-3.51 1.12-1.75 0-1.75-1.12-3.51-1.12-1.75 0-1.75 1.12-3.5 1.12S17.74 27 15.99 27s-1.75 1.12-3.5 1.12S10.74 27 8.99 27s-1.75 1.12-3.49 1.12C3.75 28.12 3.75 27 2 27v3h28.01v-3Z"/><path fill="#00A6ED" d="M21.082 8.5a.5.5 0 0 1 .5-.5H30v3h-8.418a.5.5 0 0 1-.5-.5v-2ZM11.993 15l-2 2h3a1 1 0 1 0 0-2h-1ZM16.082 17a1 1 0 1 0 0-2 1 1 0 0 0 0 2ZM20.082 16a1 1 0 1 1-2 0 1 1 0 0 1 2 0ZM22.082 17a1 1 0 1 0 0-2 1 1 0 0 0 0 2ZM26.082 16a1 1 0 1 1-2 0 1 1 0 0 1 2 0ZM28.082 17a1 1 0 1 0 0-2 1 1 0 0 0 0 2ZM9.705 9l1.409 2h2.898a1 1 0 1 0 0-2H9.705Z"/><path fill="#433B6B" d="M15.5 12a.5.5 0 0 0-.5.5v.5l7.5.52L30 13v-1H15.5ZM5.5 19a.5.5 0 0 0-.5.5v.5l12 .5 13-.5v-1H5.5Z"/><path fill="#0084CE" d="M8 7.5a.5.5 0 0 1 .5-.5H20v1H8.5a.5.5 0 0 1-.5-.5ZM11 13.5a.5.5 0 0 1 .5-.5H30v1H11.5a.5.5 0 0 1-.5-.5ZM3 20a1 1 0 0 0-1 1v2c0 2 2.5 2 2.5 2H30v-5H3Z"/><path fill="#B4ACBC" d="M19 8h1v4h-1z"/></svg>
